public/pacificvis-logo.svg

<svg width="696" height="170" viewBox="0 0 696 170" fill="none" xmlns="http://www.w3.org/2000/svg">
<path d="M6 87.1717C43 115.172 84.2 25.2717 131 67.4717C95 44.0717 47.9 126.872 6 87.1717Z" fill="url(#paint0_linear_9_82)"/>
<g opacity="0.65">
<mask id="mask0_9_82" style="mask-type:luminance" maskUnits="userSpaceOnUse" x="10" y="120" width="115" height="41">
<path d="M125 120.972H10.6V160.772H125V120.972Z" fill="white"/>
</mask>
<g mask="url(#mask0_9_82)">
<path d="M11.2 150.272L34.3 159.172L100.1 122.672L124.6 130.172" stroke="url(#paint1_linear_9_82)" stroke-width="3" stroke-miterlimit="10"/>
</g>
</g>
<path d="M119.4 130.172C119.4 133.072 121.7 135.372 124.6 135.372C127.5 135.372 129.8 133.072 129.8 130.172C129.8 127.272 127.5 124.972 124.6 124.972C121.7 124.972 119.4 127.272 119.4 130.172Z" fill="#4166B0"/>
<path d="M94.6 122.672C94.6 125.572 96.9 127.872 99.8 127.872C102.7 127.872 105 125.572 105 122.672C105 119.772 102.7 117.472 99.8 117.472C96.9 117.472 94.6 119.772 94.6 122.672Z" fill="#6583BE"/>
<path d="M29.2 159.172C29.2 162.072 31.5 164.372 34.4 164.372C37.3 164.372 39.6 162.072 39.6 159.172C39.6 156.272 37.3 153.972 34.4 153.972C31.5 153.972 29.2 156.272 29.2 159.172Z" fill="#899FCC"/>
<path d="M6 149.972C6 152.872 8.3 155.172 11.2 155.172C14.1 155.172 16.4 152.872 16.4 149.972C16.4 147.072 14.1 144.772 11.2 144.772C8.3 144.772 6 147.072 6 149.972Z" fill="#9BADD2"/>
<path d="M22.6 125.572L6 120.072L20.9 129.372L22.6 125.572Z" fill="#9BADD2"/>
<path d="M38.8 121.372L22.6 125.572L20.9 129.372L41 130.172L38.8 121.372Z" fill="#899FCC"/>
<path d="M88.7 90.9718L38.8 121.372L41 130.172L92.8 103.872L88.7 90.9718Z" fill="#7891C5"/>
<path d="M105.7 88.9718L88.7 90.9718L92.8 103.872L106.7 99.3718L105.7 88.9718Z" fill="#6583BE"/>
<path d="M105.7 88.9718L121.3 93.3718L121.2 97.6718L106.7 99.3718L105.7 88.9718Z" fill="#5475B7"/>
<path d="M121.3 93.3717L131 100.372L121.2 97.6717L121.3 93.3717Z" fill="#4166B0"/>
<path d="M172.7 125.9V154.3H163.9V79.1H184.6C192.6 79.1 198.9 81.1 203.3 85C207.7 88.9 209.9 94.4 209.9 101.6C209.9 108.7 207.4 114.6 202.5 119.1C197.6 123.6 190.9 125.9 182.6 125.9H172.7ZM172.7 87.1V118H181.9C188 118 192.6 116.6 195.8 113.8C199 111 200.6 107.1 200.6 102C200.6 92.1 194.7 87.1 183 87.1H172.7Z" fill="#393A39"/>
<path d="M333 154.4C326.4 154.4 322.7 154.4 314.4 154.4C303.7 154.4 295.1 152.2 288.7 145.3C282.3 138.4 279 129.4 279 118.2C279 106.2 282.6 96.4 289.9 89C297.1 81.6 306.3 79.1 317.5 79.1C324.6 79.1 327 79.1 333 79.1V87.1C326.1 87.1 323.9 87.1 317.4 87.1C308.8 87.1 301.7 88.7 296.4 94.5C291 100.3 288.3 108 288.3 117.6C288.3 126.8 290.8 134.1 295.8 139.5C300.8 144.9 307.5 145.8 315.7 145.8C323.3 145.8 325.6 145.7 333 145.7V154.4Z" fill="#393A39"/>
<path d="M502.8 154.4C496.2 154.4 492.5 154.4 484.2 154.4C473.5 154.4 464.9 152.2 458.5 145.3C452.1 138.4 448.8 129.4 448.8 118.2C448.8 106.2 452.4 96.4 459.7 89C466.9 81.6 476.1 79.1 487.3 79.1C494.4 79.1 496.8 79.1 502.8 79.1V87.1C495.9 87.1 493.7 87.1 487.2 87.1C478.6 87.1 471.5 88.7 466.2 94.5C460.8 100.3 458.1 108 458.1 117.6C458.1 126.8 460.6 134.1 465.6 139.5C470.6 144.9 477.3 145.8 485.5 145.8C493.1 145.8 495.4 145.7 502.8 145.7V154.4Z" fill="#393A39"/>
<path d="M357.2 154.4H348.4V79.1H357.2V154.4Z" fill="#393A39"/>
<path d="M415.2 87.1H385.8V113.1H413V121H385.8V154.3H377V79.1H415.2V87.1Z" fill="#393A39"/>
<path d="M438.3 154.4H429.5V79.1H438.3V154.4Z" fill="#393A39"/>
<path d="M170.1 44.4H163.8V7.40002H170.1V44.4Z" fill="#757576"/>
<path d="M200 44.4H179.2V7.40002H199.2V12.6H185.4V23H198.1V28.2H185.4V39.1H200V44.4Z" fill="#757576"/>
<path d="M227.4 44.4H206.6V7.40002H226.6V12.6H212.8V23H225.5V28.2H212.8V39.1H227.4V44.4Z" fill="#757576"/>
<path d="M254.8 44.4H234V7.40002H254V12.6H240.2V23H252.9V28.2H240.2V39.1H254.8V44.4Z" fill="#757576"/>
<path d="M604.8 80.3999L578.2 154.4H564.5L538.4 80.3999H551.8L570.1 136.5C570.7 138.3 571.1 140.4 571.4 142.7H571.6C571.8 140.7 572.3 138.6 573.1 136.4L591.8 80.3999H604.8Z" fill="#393A39"/>
<path d="M627.2 154.4H614.6V80.3999H627.2V154.4Z" fill="#393A39"/>
<path d="M641.7 143.5C645.4 143.5 657.3 143.5 665.3 143.4C670.1 143.3 672.4 142.7 674.4 141.6C676.5 140.5 678.4 138.3 678.1 135.4C677.9 132.8 677 131.6 676 130.5C674.9 129.3 673.2 128.3 671.6 127.3C669.8 126.2 668.3 125.4 666.3 124.4C664.3 123.4 662 122.2 659.7 121.2C657.2 119.9 654.9 118.5 652.7 117.1C650.5 115.7 648.7 114.2 647.1 112.5C645.5 110.8 644.2 108.9 643.3 106.9C642.4 104.8 641.6 102 641.6 99.2C641.6 95.7 642.4 92.7 643.9 90.1C645.4 87.5 647.5 85.4 650.1 83.8C652.7 82.1 654.3 81.5 658.3 80.6C661.7 79.8 665.6 79.7 669 79.7C676.7 79.7 680.6 79.7 685.8 79.7V90.6C679.3 90.6 675 90.5 668.4 90.5C663.1 90.5 659.4 91.2 657.1 93.1C654.9 94.9 654.6 97.1 654.6 98.8C654.6 100.5 655.3 102.2 655.9 103.4C656.5 104.6 657.6 105.7 658.9 106.7C660.2 107.7 661.8 108.7 663.7 109.6C665.6 110.5 667.6 111.8 670.1 112.9C672.7 114.2 675.3 115.5 677.6 116.9C679.9 118.4 681.8 119.5 684 121.2C685.9 122.8 688.3 125.5 689.3 127.7C690.3 129.9 690.8 132.4 690.8 135.2C690.8 138.9 690.7 141.5 688.8 145.2C687.1 148.4 686 149.6 683.5 151.3C680.5 153.4 674 154.4 665.5 154.4C661.6 154.4 646.6 154.4 641.7 154.4V143.5Z" fill="#393A39"/>
<path d="M246.1 79.1H237L208.1 154.4H217.9L240 93.3C240.5 92.1 240.9 90.4 241.2 88.3H241.4C241.8 90.6 242.2 92.3 242.6 93.3L265.3 154.4H275.1L246.1 79.1Z" fill="#393A39"/>
<path d="M644.9 27.5L621.4 4L598 27.5L621.4 50.9L644.9 27.5Z" fill="url(#paint2_linear_9_82)"/>
<defs>
<linearGradient id="paint0_linear_9_82" x1="6" y1="108" x2="131" y2="44.5" gradientUnits="userSpaceOnUse">
<stop stop-color="#7891C5"/>
<stop offset="1" stop-color="#4166B0"/>
</linearGradient>
<linearGradient id="paint1_linear_9_82" x1="11.2" y1="140.922" x2="124.6" y2="140.922" gradientUnits="userSpaceOnUse">
<stop stop-color="#9BADD2"/>
<stop offset="1" stop-color="#4166B0"/>
</linearGradient>
<linearGradient id="paint2_linear_9_82" x1="597.956" y1="27.4596" x2="644.904" y2="27.4596" gradientUnits="userSpaceOnUse">
<stop stop-color="#F68830"/>
<stop offset="1" stop-color="#EB5959"/>
</linearGradient>
</defs>
</svg>

<?xml version="1.0" encoding="utf-8"?>
<!-- Generator: Adobe Illustrator 19.1.0, SVG Export Plug-In . SVG Version: 6.00 Build 0)  -->
<svg version="1.1" id="레이어_1" xmlns="http://www.w3.org/2000/svg" xmlns:xlink="http://www.w3.org/1999/xlink" x="0px"
	 y="0px" viewBox="0 0 696 170" enable-background="new 0 0 696 170" xml:space="preserve">
<g id="XMLID_8_">
	<path id="XMLID_16_" fill="#393A39" d="M172.7,125.9v28.4h-8.8V79.1h20.7c8,0,14.3,2,18.7,5.9c4.4,3.9,6.6,9.4,6.6,16.6
		c0,7.1-2.5,13-7.4,17.5c-4.9,4.5-11.6,6.8-19.9,6.8H172.7z M172.7,87.1v30.9h9.2c6.1,0,10.7-1.4,13.9-4.2c3.2-2.8,4.8-6.7,4.8-11.8
		c0-9.9-5.9-14.9-17.6-14.9H172.7z"/>
	<path id="XMLID_22_" fill="#393A39" d="M333,154.4c-6.6,0-10.3,0-18.6,0c-10.7,0-19.3-2.2-25.7-9.1c-6.4-6.9-9.7-15.9-9.7-27.1
		c0-12,3.6-21.8,10.9-29.2c7.2-7.4,16.4-9.9,27.6-9.9c7.1,0,9.5,0,15.5,0v8c-6.9,0-9.1,0-15.6,0c-8.6,0-15.7,1.6-21,7.4
		c-5.4,5.8-8.1,13.5-8.1,23.1c0,9.2,2.5,16.5,7.5,21.9c5,5.4,11.7,6.3,19.9,6.3c7.6,0,9.9-0.1,17.3-0.1V154.4z"/>
	<path id="XMLID_19_" fill="#393A39" d="M502.8,154.4c-6.6,0-10.3,0-18.6,0c-10.7,0-19.3-2.2-25.7-9.1c-6.4-6.9-9.7-15.9-9.7-27.1
		c0-12,3.6-21.8,10.9-29.2c7.2-7.4,16.4-9.9,27.6-9.9c7.1,0,9.5,0,15.5,0v8c-6.9,0-9.1,0-15.6,0c-8.6,0-15.7,1.6-21,7.4
		c-5.4,5.8-8.1,13.5-8.1,23.1c0,9.2,2.5,16.5,7.5,21.9c5,5.4,11.7,6.3,19.9,6.3c7.6,0,9.9-0.1,17.3-0.1V154.4z"/>
	<path id="XMLID_24_" fill="#393A39" d="M357.2,154.4h-8.8V79.1h8.8V154.4z"/>
	<path id="XMLID_26_" fill="#393A39" d="M415.2,87.1h-29.4v26H413v7.9h-27.2v33.3H377V79.1h38.2V87.1z"/>
	<path id="XMLID_28_" fill="#393A39" d="M438.3,154.4h-8.8V79.1h8.8V154.4z"/>
</g>
<g id="XMLID_135_">
	<path id="XMLID_136_" fill="#757576" d="M170.1,44.4h-6.3v-37h6.3V44.4z"/>
	<path id="XMLID_138_" fill="#757576" d="M200,44.4h-20.8v-37h20v5.2h-13.8V23h12.7v5.2h-12.7v10.9H200V44.4z"/>
	<path id="XMLID_140_" fill="#757576" d="M227.4,44.4h-20.8v-37h20v5.2h-13.8V23h12.7v5.2h-12.7v10.9h14.6V44.4z"/>
	<path id="XMLID_142_" fill="#757576" d="M254.8,44.4H234v-37h20v5.2h-13.8V23h12.7v5.2h-12.7v10.9h14.6V44.4z"/>
</g>
<g id="XMLID_14_">
	<path id="XMLID_30_" fill="#393A39" d="M604.8,80.4l-26.6,74h-13.7l-26.1-74h13.4l18.3,56.1c0.6,1.8,1,3.9,1.3,6.2h0.2
		c0.2-2,0.7-4.1,1.5-6.3l18.7-56H604.8z"/>
	<path id="XMLID_32_" fill="#393A39" d="M627.2,154.4h-12.6v-74h12.6V154.4z"/>
	<path id="XMLID_35_" fill="#393A39" d="M641.7,143.5c3.7,0,15.6,0,23.6-0.1c4.8-0.1,7.1-0.7,9.1-1.8c2.1-1.1,4-3.3,3.7-6.2
		c-0.2-2.6-1.1-3.8-2.1-4.9c-1.1-1.2-2.8-2.2-4.4-3.2c-1.8-1.1-3.3-1.9-5.3-2.9c-2-1-4.3-2.2-6.6-3.2c-2.5-1.3-4.8-2.7-7-4.1
		c-2.2-1.4-4-2.9-5.6-4.6c-1.6-1.7-2.9-3.6-3.8-5.6c-0.9-2.1-1.7-4.9-1.7-7.7c0-3.5,0.8-6.5,2.3-9.1s3.6-4.7,6.2-6.3
		c2.6-1.7,4.2-2.3,8.2-3.2c3.4-0.8,7.3-0.9,10.7-0.9c7.7,0,11.6,0,16.8,0v10.9c-6.5,0-10.8-0.1-17.4-0.1c-5.3,0-9,0.7-11.3,2.6
		c-2.2,1.8-2.5,4-2.5,5.7c0,1.7,0.7,3.4,1.3,4.6s1.7,2.3,3,3.3c1.3,1,2.9,2,4.8,2.9c1.9,0.9,3.9,2.2,6.4,3.3c2.6,1.3,5.2,2.6,7.5,4
		c2.3,1.5,4.2,2.6,6.4,4.3c1.9,1.6,4.3,4.3,5.3,6.5c1,2.2,1.5,4.7,1.5,7.5c0,3.7-0.1,6.3-2,10c-1.7,3.2-2.8,4.4-5.3,6.1
		c-3,2.1-9.5,3.1-18,3.1c-3.9,0-18.9,0-23.8,0V143.5z"/>
</g>
<path id="XMLID_33_" fill="#393A39" d="M246.1,79.1h-9.1l-28.9,75.3h9.8L240,93.3c0.5-1.2,0.9-2.9,1.2-5h0.2c0.4,2.3,0.8,4,1.2,5
	l22.7,61.1h9.8L246.1,79.1z"/>
<path id="XMLID_1_" fill="#393A39" d="M121.4,103.6"/>
<linearGradient id="XMLID_3_" gradientUnits="userSpaceOnUse" x1="597.9556" y1="27.4596" x2="644.9043" y2="27.4596">
	<stop  offset="0" style="stop-color:#F68830"/>
	<stop  offset="1" style="stop-color:#EB5959"/>
</linearGradient>
<polygon id="XMLID_53_" fill="url(#XMLID_3_)" points="644.9,27.5 621.4,4 598,27.5 621.4,50.9 "/>
<path fill="#4166B0" d="M6.2,86.7c37,28,78.2-61.9,125-19.7C95.2,43.6,48.1,126.4,6.2,86.7"/>
<g opacity="0.65">
	<g>
		<defs>
			<rect id="SVGID_1_" x="10.8" y="120.5" width="114.4" height="39.8"/>
		</defs>
		<clipPath id="SVGID_2_">
			<use xlink:href="#SVGID_1_"  overflow="visible"/>
		</clipPath>
		<polyline clip-path="url(#SVGID_2_)" fill="none" stroke="#4166B0" stroke-width="3" stroke-miterlimit="10" points="11.4,149.8 
			34.5,158.7 100.3,122.2 124.8,129.7 		"/>
	</g>
</g>
<path fill="#4166B0" d="M119.6,129.7c0,2.9,2.3,5.2,5.2,5.2c2.9,0,5.2-2.3,5.2-5.2c0-2.9-2.3-5.2-5.2-5.2
	C121.9,124.5,119.6,126.8,119.6,129.7"/>
<path fill="#4166B0" d="M94.8,122.2c0,2.9,2.3,5.2,5.2,5.2c2.9,0,5.2-2.3,5.2-5.2c0-2.9-2.3-5.2-5.2-5.2
	C97.1,117,94.8,119.3,94.8,122.2"/>
<path fill="#4166B0" d="M29.4,158.7c0,2.9,2.3,5.2,5.2,5.2c2.9,0,5.2-2.3,5.2-5.2s-2.3-5.2-5.2-5.2
	C31.7,153.5,29.4,155.8,29.4,158.7"/>
<path fill="#4166B0" d="M6.2,149.5c0,2.9,2.3,5.2,5.2,5.2c2.9,0,5.2-2.3,5.2-5.2c0-2.9-2.3-5.2-5.2-5.2
	C8.5,144.3,6.2,146.6,6.2,149.5"/>
<polygon fill="#92A1B6" points="22.9,125.1 6.3,119.6 21.2,128.9 "/>
<polygon fill="#8293B5" points="39.1,120.9 22.9,125.1 21.2,128.9 41.3,129.7 "/>
<polygon fill="#7386B3" points="88.9,90.5 39,120.9 41.2,129.7 93,103.4 "/>
<polygon fill="#637BB1" points="105.9,88.5 88.9,90.5 93,103.4 106.9,98.9 "/>
<polygon fill="#5370B0" points="105.9,88.5 121.5,92.9 121.4,97.2 106.9,98.9 "/>
<polygon fill="#4166B0" points="121.5,92.9 131.2,99.9 121.4,97.2 "/>
</svg>
